public/assets/icons/cart.svg

<svg width="24" height="24" viewBox="0 0 24 24" fill="none" xmlns="http://www.w3.org/2000/svg">
<path d="M9 22C9.55228 22 10 21.5523 10 21C10 20.4477 9.55228 20 9 20C8.44772 20 8 20.4477 8 21C8 21.5523 8.44772 22 9 22Z" stroke="#020F59" stroke-width="2" stroke-linecap="round" stroke-linejoin="round"/>
<path d="M20 22C20.5523 22 21 21.5523 21 21C21 20.4477 20.5523 20 20 20C19.4477 20 19 20.4477 19 21C19 21.5523 19.4477 22 20 22Z" stroke="#020F59" stroke-width="2" stroke-linecap="round" stroke-linejoin="round"/>
<path d="M1 1H5L7.68 14.39C7.77144 14.8504 8.02191 15.264 8.38755 15.5583C8.75318 15.8526 9.2107 16.009 9.68 16H19.4C19.8693 16.009 20.3268 15.8526 20.6925 15.5583C21.0581 15.264 21.3086 14.8504 21.4 14.39L22.2 10.195L23 6H6M5 1L6.00075 6M6.00075 6L7.68 14.39L8.38755 15.5583M6.00075 6H23L22.2 10.195M6.00075 6H6M9.68 16H19.4C19.8693 16.009 20.3268 15.8526 20.6925 15.5583" stroke="#020F59" stroke-linecap="round" stroke-linejoin="round"/>
<path d="M8.38755 15.5583C8.02191 15.264 7.77144 14.8504 7.68 14.39L6 6H23L22.2 10.195L21.4 14.39C21.3086 14.8504 21.0581 15.264 20.6925 15.5583C20.3268 15.8526 19.8693 16.009 19.4 16H9.68C9.2107 16.009 8.75318 15.8526 8.38755 15.5583Z" fill="#020F59"/>
<path d="M7.68 14.39C7.77144 14.8504 8.02191 15.264 8.38755 15.5583M7.68 14.39L6 6H23L22.2 10.195L21.4 14.39C21.3086 14.8504 21.0581 15.264 20.6925 15.5583C20.3268 15.8526 19.8693 16.009 19.4 16H9.68C9.2107 16.009 8.75318 15.8526 8.38755 15.5583M7.68 14.39L8.38755 15.5583" stroke="#020F59" stroke-linecap="round" stroke-linejoin="round"/>
</svg>

<svg xmlns="http://www.w3.org/2000/svg" width="24" height="24" fill="none"><path stroke="#020F59" stroke-linecap="round" stroke-linejoin="round" stroke-width="2" d="M9 22a1 1 0 1 0 0-2 1 1 0 0 0 0 2ZM20 22a1 1 0 1 0 0-2 1 1 0 0 0 0 2Z"/><path stroke="#020F59" stroke-linecap="round" stroke-linejoin="round" d="M1 1h4l2.68 13.39a2 2 0 0 0 2 1.61h9.72a2 2 0 0 0 2-1.61l.8-4.195L23 6H6M5 1l1 5m0 0 1.68 8.39.708 1.168M6 6H23l-.8 4.195M6 6h0m3.68 10h9.72a2 2 0 0 0 1.293-.442"/><path fill="#020F59" d="M8.388 15.558a2 2 0 0 1-.708-1.168L6 6h17l-.8 4.195-.8 4.195a2 2 0 0 1-2 1.61H9.68a2 2 0 0 1-1.292-.442Z"/><path stroke="#020F59" stroke-linecap="round" stroke-linejoin="round" d="M7.68 14.39a2 2 0 0 0 .708 1.168M7.68 14.39 6 6h17l-.8 4.195-.8 4.195a2 2 0 0 1-2 1.61H9.68a2 2 0 0 1-1.292-.442M7.68 14.39l.708 1.168"/></svg>
